X: 11705
T: Éirinn Go Brách
R: jig
M: 6/8
K: Amajor
|:B|cAA eAA|aga e2d|cAA eAA|Bcd Bcd|
cAA eAA|aga e2d|cec BAB|cAA A2:|
|:B|c2c ecA|dcd a2e|c2c ecA|Bcd Bcd|
c2c ecA|dcd a2e|cec BAB|cAA A2:|

